loleaflet/images/lc_resetdatapoint.svg

<svg viewBox="0 0 24 24" xmlns="http://www.w3.org/2000/svg"><path d="m12 5c-.554 0-1 .446-1 1v7.048828c.896827-1.424069 2.330756-2.465782 4-2.865234v-4.183594c0-.554-.446-1-1-1z" fill="#0063b1"/><g fill="#3a3a38" transform="matrix(0 -1 -1 0 0 0)"><rect height="1" ry=".5" width="20" x="-22" y="-5"/><path d="m2.5 19c-.277 0-.5.223-.5.5s.223.5.5.5h7.5v-1z" transform="matrix(0 -1 -1 0 0 0)"/></g><path d="m12 6v5.828125c.576826-.555574 1.25336-1.006611 2-1.320313v-4.507812z" fill="#83beec"/><rect fill="#3a3a38" height="11" ry="1" width="4" x="6" y="8"/><path d="m7 9h2v9h-2z" fill="#c8c6c4"/><path d="m16.5 11c-2.842075.0024-5.214286 2.169693-5.472656 5h1.003906c.2545-2.276321 2.178247-3.998276 4.46875-4 1.903272.0043 3.598001 1.205572 4.232422 3h-2.232422c-.277 0-.5.223-.5.5s.223.5.5.5h3c.06925 0 .135453-.01383.195312-.03906.179579-.075706.304688-.25319.304688-.46094v-3c0-.277-.223-.5-.5-.5s-.5.223-.5.5v.849609c-1.027231-1.470011-2.706643-2.346892-4.5-2.349609zm-5 6c-.277 0-.5.223-.5.5v3c0 .277.223.5.5.5s.5-.223.5-.5v-.867188c.99762 1.431399 2.64246 2.366305 4.5 2.367188 2.842075-.0024 5.214286-2.169693 5.472656-5h-1.003906c-.2545 2.276321-2.178247 3.998276-4.46875 4-1.937261-.0023-3.59894-1.24237-4.222656-3h2.222656c.277 0 .5-.223.5-.5s-.223-.5-.5-.5z" fill="#18ab50"/></svg>

<?xml version="1.0" encoding="UTF-8" standalone="no"?>
<svg
   xmlns:dc="http://purl.org/dc/elements/1.1/"
   xmlns:cc="http://creativecommons.org/ns#"
   xmlns:rdf="http://www.w3.org/1999/02/22-rdf-syntax-ns#"
   xmlns:svg="http://www.w3.org/2000/svg"
   xmlns="http://www.w3.org/2000/svg"
   xmlns:sodipodi="http://sodipodi.sourceforge.net/DTD/sodipodi-0.dtd"
   xmlns:inkscape="http://www.inkscape.org/namespaces/inkscape"
   viewBox="0 0 24 24"
   version="1.1"
   id="svg20"
   sodipodi:docname="lc_resetdatapoint.svg"
   inkscape:version="0.92.5 (2060ec1f9f, 2020-04-08)">
  <metadata
     id="metadata26">
    <rdf:RDF>
      <cc:Work
         rdf:about="">
        <dc:format>image/svg+xml</dc:format>
        <dc:type
           rdf:resource="http://purl.org/dc/dcmitype/StillImage" />
        <dc:title></dc:title>
      </cc:Work>
    </rdf:RDF>
  </metadata>
  <defs
     id="defs24" />
  <sodipodi:namedview
     pagecolor="#ffffff"
     bordercolor="#666666"
     borderopacity="1"
     objecttolerance="10"
     gridtolerance="10"
     guidetolerance="10"
     inkscape:pageopacity="0"
     inkscape:pageshadow="2"
     inkscape:window-width="1366"
     inkscape:window-height="700"
     id="namedview22"
     showgrid="true"
     inkscape:zoom="27.812867"
     inkscape:cx="15.423455"
     inkscape:cy="9.9850907"
     inkscape:window-x="0"
     inkscape:window-y="0"
     inkscape:window-maximized="1"
     inkscape:current-layer="svg20">
    <inkscape:grid
       type="xygrid"
       id="grid1845" />
  </sodipodi:namedview>
  <path
     style="fill:#0063b1"
     d="M 12 5 C 11.446 5 11 5.446 11 6 L 11 13.048828 C 11.896827 11.624759 13.330756 10.583046 15 10.183594 L 15 6 C 15 5.446 14.554 5 14 5 L 12 5 z "
     id="rect2" />
  <g
     fill="#3a3a38"
     transform="matrix(0 -1 -1 0 0 0)"
     id="g8">
    <rect
       height="1"
       ry=".5"
       width="20"
       x="-22"
       y="-5"
       id="rect4" />
    <path
       d="M 2.5,19 C 2.223,19 2,19.223 2,19.5 2,19.777 2.223,20 2.5,20 H 10 v -1 z"
       transform="matrix(0,-1,-1,0,0,0)"
       id="rect6"
       inkscape:connector-curvature="0"
       sodipodi:nodetypes="sssccs" />
  </g>
  <path
     style="fill:#83beec"
     d="M 12 6 L 12 11.828125 C 12.576826 11.272551 13.25336 10.821514 14 10.507812 L 14 6 L 12 6 z "
     id="path10" />
  <rect
     fill="#3a3a38"
     height="11"
     ry="1"
     width="4"
     x="6"
     y="8"
     id="rect12" />
  <path
     d="m7 9h2v9h-2z"
     fill="#c8c6c4"
     id="path14" />
  <path
     inkscape:connector-curvature="0"
     style="fill:#18ab50"
     d="m 16.5,11 c -2.842075,0.0024 -5.214286,2.169693 -5.472656,5 h 1.003906 c 0.2545,-2.276321 2.178247,-3.998276 4.46875,-4 1.903272,0.0043 3.598001,1.205572 4.232422,3 H 18.5 c -0.277,0 -0.5,0.223 -0.5,0.5 0,0.277 0.223,0.5 0.5,0.5 h 3 c 0.06925,0 0.135453,-0.01383 0.195312,-0.03906 C 21.874891,15.885234 22,15.70775 22,15.5 v -3 C 22,12.223 21.777,12 21.5,12 21.223,12 21,12.223 21,12.5 v 0.849609 C 19.972769,11.879598 18.293357,11.002717 16.5,11 Z m -5,6 C 11.223,17 11,17.223 11,17.5 v 3 c 0,0.277 0.223,0.5 0.5,0.5 0.277,0 0.5,-0.223 0.5,-0.5 v -0.867188 c 0.99762,1.431399 2.64246,2.366305 4.5,2.367188 2.842075,-0.0024 5.214286,-2.169693 5.472656,-5 H 20.96875 C 20.71425,19.276321 18.790503,20.998276 16.5,21 14.562739,20.9977 12.90106,19.75763 12.277344,18 H 14.5 C 14.777,18 15,17.777 15,17.5 15,17.223 14.777,17 14.5,17 Z"
     id="path21" />
</svg>
